X: 122009
T: ALLEY CROCKER
P: Same figure.
%R: reel
B: James Kerr "Merry Melodies" v.1 p.22 s.0 #9
Z: 2017 John Chambers <jc:trillian.mit.edu>
M: C
L: 1/8
K: D
A |\
Addc d2(df) | edcd efga |\
fddc d2(df) | edcB AGFE |\
Dddc d2(df) | edcd efga |\
fddc d2(df) | edcd efge |]
faa^g a2(af) | bagf (ef)g2 |\
Aggf g2(gb) | agfe (de)f2 |\
(Ad)dd (dc)cc | (cB)BB (BA)AA |\
Aggf g2(gb) | afge d2d |]

%%sep 1 1 500
%%sep 1 1 500

